Icons/icons/youtube.svg

<svg width="24" height="24" viewBox="0 0 24 24" fill="none" xmlns="http://www.w3.org/2000/svg">
<g clip-path="url(#clip0_104_45)">
<path fill-rule="evenodd" clip-rule="evenodd" d="M11.9999 3C11.9999 3 12 3 12 4L12 5L11.9245 5.00011C11.8745 5.00022 11.8006 5.00044 11.7057 5.00089C11.516 5.00178 11.2425 5.00356 10.9088 5.00713C10.2411 5.01427 9.33398 5.02855 8.37471 5.05706C7.41384 5.08561 6.40861 5.12821 5.54213 5.19141C4.65402 5.25619 3.99413 5.33761 3.66536 5.42419C3.36666 5.51 3.09559 5.67253 2.87915 5.89566C2.66801 6.11333 2.51611 6.38119 2.43762 6.67375C2.13808 8.34737 1.99159 10.0448 1.99999 11.7451L2.00005 11.7563C1.98933 13.4635 2.13471 15.1681 2.43448 16.8487C2.52111 17.1264 2.67454 17.3788 2.88158 17.5837C3.0985 17.7984 3.36695 17.9537 3.66114 18.0347C3.98847 18.1217 4.6502 18.2035 5.54213 18.2686C6.40861 18.3318 7.41384 18.3744 8.37471 18.4029C9.33398 18.4314 10.2411 18.4457 10.9088 18.4529C11.2425 18.4564 11.516 18.4582 11.7057 18.4591C11.8006 18.4596 11.8745 18.4598 11.9245 18.4599H12.0755C12.1255 18.4598 12.1994 18.4596 12.2943 18.4591C12.4841 18.4582 12.7575 18.4564 13.0912 18.4529C13.759 18.4457 14.666 18.4314 15.6253 18.4029C16.5862 18.3744 17.5914 18.3318 18.4579 18.2686C19.346 18.2038 20.0059 18.1224 20.3347 18.0358C20.6334 17.95 20.9044 17.7875 21.1209 17.5643C21.332 17.3467 21.4839 17.0788 21.5624 16.7863C21.8596 15.1253 22.0061 13.4409 22 11.7536L22 11.7437C22.0107 10.0306 21.8643 8.32008 21.5624 6.63377C21.4839 6.3412 21.332 6.07333 21.1209 5.85566C20.9069 5.63509 20.6396 5.47373 20.3449 5.38717C20.005 5.3072 19.3426 5.23348 18.4642 5.17498C17.5959 5.11716 16.5893 5.07822 15.6279 5.05213C14.6679 5.02609 13.7602 5.01304 13.0921 5.00651C12.7582 5.00325 12.4846 5.00162 12.2947 5.00081L12.0757 5.0001L12 5L12 4C12 3 11.9999 3 11.9999 3L12.0797 3.0001C12.1312 3.00021 12.2067 3.00042 12.3033 3.00083C12.4963 3.00166 12.7737 3.00331 13.1116 3.00661C13.7873 3.01321 14.7071 3.02641 15.6821 3.05287C16.6557 3.07928 17.6916 3.11909 18.5971 3.1794C19.4767 3.23798 20.3115 3.32017 20.8372 3.44854C20.849 3.45141 20.8606 3.45448 20.8722 3.45777C21.5123 3.63886 22.0933 3.98566 22.5565 4.46315C23.0196 4.94063 23.3486 5.53189 23.5101 6.17719C23.5155 6.19879 23.5202 6.22057 23.5241 6.24249C23.852 8.06021 24.0113 9.90432 24 11.7513C24.0063 13.5707 23.847 15.3869 23.5241 17.1774C23.5202 17.1994 23.5155 17.2212 23.5101 17.2428C23.3486 17.8881 23.0196 18.4794 22.5565 18.9569C22.0933 19.4343 21.5123 19.7811 20.8722 19.9622L20.8584 19.966C20.3247 20.1088 19.4827 20.1992 18.6034 20.2633C17.6961 20.3295 16.6588 20.3731 15.6847 20.4021C14.709 20.4311 13.7886 20.4455 13.1126 20.4528C12.7744 20.4564 12.4969 20.4582 12.3037 20.4591C12.2071 20.4595 12.1315 20.4598 12.0799 20.4599L12.0005 20.46L11.9201 20.4599C11.8685 20.4598 11.7929 20.4595 11.6963 20.4591C11.5031 20.4582 11.2256 20.4564 10.8874 20.4528C10.2115 20.4455 9.29103 20.4311 8.3153 20.4021C7.34118 20.3731 6.3039 20.3295 5.39664 20.2633C4.51733 20.1992 3.67529 20.1088 3.14165 19.966L3.13609 19.9646C2.50901 19.793 1.9368 19.4626 1.47472 19.0052C1.01264 18.5479 0.676315 17.9792 0.498248 17.3539C0.489209 17.3222 0.481747 17.29 0.475889 17.2575C0.14805 15.44 -0.0112584 13.5961 -7.92317e-06 11.7493C-0.00872218 9.91636 0.150573 8.08643 0.475881 6.28253C0.479836 6.2606 0.484522 6.23881 0.489932 6.21719C0.651451 5.57189 0.980402 4.98063 1.44356 4.50315C1.90672 4.02566 2.48769 3.67886 3.12777 3.49777L3.14165 3.49395C3.67529 3.35123 4.51733 3.26085 5.39664 3.19671C6.3039 3.13054 7.34118 3.08689 8.3153 3.05794C9.29103 3.02895 10.2115 3.01448 10.8874 3.00724C11.2256 3.00363 11.5031 3.00182 11.6963 3.00091C11.7929 3.00046 11.8685 3.00023 11.9201 3.00011L11.9999 3Z" fill="#69B99D"/>
<path fill-rule="evenodd" clip-rule="evenodd" d="M9.24718 7.61559C9.55499 7.43653 9.9348 7.43468 10.2443 7.61072L15.9943 10.8807C16.3069 11.0585 16.5 11.3904 16.5 11.75C16.5 12.1096 16.3069 12.4415 15.9943 12.6192L10.2443 15.8892C9.9348 16.0653 9.55499 16.0634 9.24718 15.8844C8.93937 15.7053 8.75 15.3761 8.75 15.02V8.47998C8.75 8.12388 8.93937 7.79464 9.24718 7.61559ZM10.75 10.1991V13.3009L13.4771 11.75L10.75 10.1991Z" fill="#69B99D"/>
</g>
<defs>
<clipPath id="clip0_104_45">
<rect width="24" height="24" fill="white"/>
</clipPath>
</defs>
</svg>

<!-- Generated by IcoMoon.io -->
<svg version="1.1" xmlns="http://www.w3.org/2000/svg" width="24" height="24" viewBox="0 0 24 24">
<title>youtube</title>
<path d="M12 3c0 0 0 0 0 1v1l-0.075 0c-0.050 0-0.124 0-0.219 0.001-0.19 0.001-0.463 0.003-0.797 0.006-0.668 0.007-1.575 0.021-2.534 0.050-0.961 0.029-1.966 0.071-2.833 0.134-0.888 0.065-1.548 0.146-1.877 0.233-0.299 0.086-0.57 0.248-0.786 0.471-0.211 0.218-0.363 0.486-0.442 0.778-0.3 1.674-0.446 3.371-0.438 5.071l0 0.011c-0.011 1.707 0.135 3.412 0.434 5.092 0.087 0.278 0.24 0.53 0.447 0.735 0.217 0.215 0.485 0.37 0.78 0.451 0.327 0.087 0.989 0.169 1.881 0.234 0.866 0.063 1.872 0.106 2.833 0.134 0.959 0.029 1.866 0.043 2.534 0.050 0.334 0.003 0.607 0.005 0.797 0.006 0.095 0 0.169 0.001 0.219 0.001h0.151c0.050-0 0.124-0 0.219-0.001 0.19-0.001 0.463-0.003 0.797-0.006 0.668-0.007 1.575-0.021 2.534-0.050 0.961-0.029 1.966-0.071 2.833-0.134 0.888-0.065 1.548-0.146 1.877-0.233 0.299-0.086 0.57-0.248 0.786-0.471 0.211-0.218 0.363-0.486 0.441-0.778 0.297-1.661 0.444-3.345 0.438-5.033v-0.010c0.011-1.713-0.136-3.424-0.438-5.11-0.078-0.293-0.23-0.56-0.441-0.778-0.214-0.221-0.481-0.382-0.776-0.468-0.34-0.080-1.002-0.154-1.881-0.212-0.868-0.058-1.875-0.097-2.836-0.123-0.96-0.026-1.868-0.039-2.536-0.046-0.334-0.003-0.607-0.005-0.797-0.006l-0.295-0.001v-1c0-1-0-1-0-1l0.080 0c0.051 0 0.127 0 0.224 0.001 0.193 0.001 0.47 0.002 0.808 0.006 0.676 0.007 1.596 0.020 2.571 0.046 0.974 0.026 2.010 0.066 2.915 0.127 0.88 0.059 1.714 0.141 2.24 0.269 0.012 0.003 0.023 0.006 0.035 0.009 0.64 0.181 1.221 0.528 1.684 1.005s0.792 1.069 0.954 1.714c0.005 0.022 0.010 0.043 0.014 0.065 0.328 1.818 0.487 3.662 0.476 5.509 0.006 1.819-0.153 3.636-0.476 5.426-0.004 0.022-0.009 0.044-0.014 0.065-0.162 0.645-0.491 1.237-0.954 1.714s-1.044 0.824-1.684 1.005l-0.014 0.004c-0.534 0.143-1.376 0.233-2.255 0.297-0.907 0.066-1.945 0.11-2.919 0.139-0.976 0.029-1.896 0.043-2.572 0.051-0.338 0.004-0.616 0.005-0.809 0.006-0.097 0-0.172 0.001-0.224 0.001l-0.079 0-0.080-0c-0.052-0-0.127-0-0.224-0.001-0.193-0.001-0.471-0.003-0.809-0.006-0.676-0.007-1.596-0.022-2.572-0.051-0.974-0.029-2.011-0.073-2.919-0.139-0.879-0.064-1.721-0.154-2.255-0.297l-0.006-0.001c-0.627-0.172-1.199-0.502-1.661-0.959s-0.798-1.026-0.976-1.651c-0.009-0.032-0.017-0.064-0.022-0.096-0.328-1.818-0.487-3.661-0.476-5.508-0.009-1.833 0.151-3.663 0.476-5.467 0.004-0.022 0.009-0.044 0.014-0.065 0.162-0.645 0.49-1.237 0.954-1.714s1.044-0.824 1.684-1.005l0.014-0.004c0.534-0.143 1.376-0.233 2.255-0.297 0.907-0.066 1.945-0.11 2.919-0.139 0.976-0.029 1.896-0.043 2.572-0.051 0.338-0.004 0.616-0.005 0.809-0.006 0.097-0 0.172-0.001 0.224-0.001l0.080-0z"></path>
<path d="M9.247 7.616c0.308-0.179 0.688-0.181 0.997-0.005l5.75 3.27c0.313 0.178 0.506 0.51 0.506 0.869s-0.193 0.692-0.506 0.869l-5.75 3.27c-0.309 0.176-0.689 0.174-0.997-0.005s-0.497-0.508-0.497-0.864v-6.54c0-0.356 0.189-0.685 0.497-0.864zM10.75 10.199v3.102l2.727-1.551-2.727-1.551z"></path>
</svg>
